X:1
T:James Gibb editions
T:Ne l'aria in questi di - de Rore
T:#
%%score [ 1 2 3 4 ]
L:1/8
Q:1/4=100
M:4/4
K:G
V:1 treble nm="Soprano" snm="S"
V:2 treble nm="Alto" snm="A"
V:3 treble-8 nm="Tenor" snm="T"
V:4 bass nm="Bass" snm="B"
V:1
"^Ne l'aria in questi dì""^Cipriano de Rore\n(1515-65)" z4 B4 | d4 d2 B2- | B2 c2 A4 | A4 B2 d2 | %4
w: Ne|l'a- ria~in que\-|* sti dì|fatt' ho~un si|
 c4 B2 A2 | B8 | z2 G2 B4 | B2 B>c d2 d>c | BB A2 A4- | A4 z4 | z8 | z4 F3 G | A2 GA B2 FG | %13
w: for- te ca-|stel|che Gio-|ve ful- mi- nar, ful- mi-|nar non puo- te,|||E di|polv' e di ven- to,~e di|
 A2 GA B3 B | B2 c (B2 A/G/ A2) | B2 d2 B3 G | A2 B2 (G3 F/E/ | FGGF) G2 B2- | B2 A4 ^G2 | %19
w: polv' e di ven- to|son le por\- * * *|te, Con mil- le|fos- se~in- tor\- * *|* * * * no, e|* son sue|
 A2 A2 z4 | z2 c2 B2 A2 | e4 d2 d2 | c2 (B3 A/G/ A2) | B2 (G3 F/E/ F2) | G4 z2 G2- | GG B2 A2 A2 | %26
w: scor- te|Va- ne spe-|ran- ze, d'o-|gni~ef- fet\- * * *|to vuo\- * * *|te. Di|* de- sir son le|
 G2 G2 FF E2 | F4 z2 E2 | G4 z2 B2 | (B3 A/G/ F2) G2 | G2 F E2 E (D2- | D^C/B,/ C2) D4 | %32
w: mu- ra~o- ve per- cuo-|te Non|mar, non|fiu\- * * * me,|ma tem- pest e sor\-|* * * * te.|
 z2 A2 ^G2 A2 | B2 B2 EE G2- | G2 G2 A2 B2 | c2 BB A2 Gc- | cB A2 G (G2 F) | G4 z4 | z4 z2 A2- | %39
w: Di fol- le~ar-|dir e di ti- mor|* son far- te|L'ar- mi, che con- tr'al- trui|* pu- gnar non san\- *|no.|E|
 AF B2 E2 A2 | B2 B2 B2 A2 | G4 F4 | G4 G2 A2 | B2 G2 B>c dB | c2 B2 c2 c2 | d2 ee d>c BB | %46
w: * di va- ri pen-|sier la mu- ni-|tio- ne.|Con- tra se|stes- so~il ca- stel- lan com-|bat- te, con- tra|se stes- so~il ca- stel- lan com-|
 A2 B2 z2 B2 | d3 c B2 A2 | (ABcd e2) E2 | G2 F2 E4 | E4 z4 | z8 | z8 | z8 | z2 A2 F3 G | %55
w: bat- te, Pa-|gan- do~i suoi guer-|rier * * * * sol|d'am- bi- tio-|ne:||||Pen- sa- te|
 A2 A2 B4 | z2 B2 B3 A | B2 d2 c4- |[Q:1/4=98] c2[Q:1/4=96] B2[Q:1/4=94] A2[Q:1/4=92] G2 | %59
w: l'o- pre mie,|pen- sa- te|l'o- pre mie,|* che fin' a-|
[Q:1/4=88] A8 |[Q:1/4=84] !fermata!B8 |] %61
w: vran-|no.|
V:2
 z4 G4 | B4 A2 G2- | G2 G2 F4 | F4 G2 F2 | A4 G2 E2 | G2 D2 G4 | G2 B>A GG F2 | G2 G>G F2 B>A | %8
w: Ne|l'a- ria~in que\-|* sti dì|fatt' ho~un si|for- te ca-|stel che Gio-|ve ful- mi- nar non puo-|te ful- mi- nar, ful- mi-|
 GF E2 F4 | z4 z2 D2 | G2 F2 E3 D | EDB,C D4 | D4 D3 B, | E2 EE F2 G2 | G2 G2 (E3 F | %15
w: nar non puo- te,|Fon-|da- to so- pra|due vo- lu- bil ruo-|te, E di|polv' e di ven- to|son le por\- *|
 G2) F2 z2 G2 | F2 D2 E2 B,2 | D4 D2 D2 | G2 F2 E4 | E4 z2 A2- | A2 G4 F2 | (EFGA B2) A2 | %22
w: * te, Con|mil- le fos- se~in-|tor- no, e|son sue scor-|te Va-|* ne spe-|ran\- * * * * ze,|
 z2 G4 F2 | D2 D2 D4 | D4 z2 E2- | EE G2 F2 E2 | E2 D2 DD B,2 | D2 D2 E4 | z2 E2 (G3 F/E/ | %29
w: d'o- gni~ef-|fet- to vuo-|te. Di|* de- sir son le|mu- ra~o- ve per- cuo-|te Non mar,|non fiu\- * *|
 DE D4) B,2 | E2 D B,2 C A,2- | A,2 A,2 z A, B,2 | ^C2 DD B,2 A,2 | D3 D ^C2 D2 | E4 E2 G2- | %35
w: * * * me|ma tem- pest e sor\-|* te. Di fol-|le~ar- dir, di fol- le~ar-|dir e di ti-|mor son fat\-|
 G2 G2 E2 E2 | z8 | z2 D3 B, E2 | C2 B,2 E4 | z4 z2 E2- | E2 D2 B,2 (D2- | D^C/B,/ C2) D4 | %42
w: * te L'ar- mi,||E di va-|ri pen- sier|la|* mu- ni- tio\-|* * * * ne.|
 z2 B,2 B,2 A,2 | G,2 G, E2 E F2 | G2 G2 E>D CE | G2 G2 z G G>F | EF G2 F2 z G | G2 A2 G2 F2 | %48
w: Con- tra se|stes- so, con- tra se|stes- so~il ca- stel- lan com-|bat- te, il ca- stel-|lan com- bat- te, Pa-|gan- do~i suoi guer-|
 E4 A,4 | D2 D2 B,4 | ^C4 z2 F2 | F3 E F2 A2 | G6 F2 | D2 D2 E4 | F2 F2 A3 G | F2 F2 (G2 FE | %56
w: rier sol|d'am- bi- tio-|ne: Pen-|sa- te l'o- pre|mie, che|fin' a- vran-|no, pen- sa- te|l'o- pre mie, * *|
 F2) G2 G3 F | E2 D2 =F2 E2 | C2 D2 (EF G2- | G2 FE F4) | !fermata!G8 |] %61
w: * pen- sa- te|l'o- pre mie, che|che fin' a\- * *||no.|
V:3
 d8 | g4 f2 e2- | e2 e2 d4- | d2 d2 d2 d2 | e4 e2 ^c2 | d4 z2 e2 | d4 d2 d>c | BA G2 A2 B>c | %8
w: Ne|l'a- ria~in que\-|* sti dì|* fatt' ho~un si|for- te ca-|stel che|Gio- ve ful- mi-|nar non puo- te, ful- mi-|
 dd ^c2 d2 A2 | d3 c B2 B2 | BGAB c2 GG- | GFGA B2 A2 | z2 B3 c d2 | cd e2 d2 d2- | d2 e2 c4 | %15
w: nar non puo- te, Fon-|da- to so- pra|due vo- lu- bil ruo- te, due|* vo- lu- bil ruo- te,|E di polv'|e di ven- to son|* le por-|
 B4 z2 e2 | d3 B c2 G2 | A4 G2 d2 | d2 d2 c2 B2 | c4 B2 A2 | e4 d4 | g6 f2 | e4 B2 (d2- | %23
w: te, Con|mil- le fos- se~in-|tor- no, e|son sue scor- te|Va- ne spe-|ran- ze,|d'o- gni~ef-|fet- to vuo\-|
 dc BA/G/ A4) | B4 z2 c2- | c2 B2 d2 cA | c2 B2 AA ^G2 | A2 A2 c4 | z2 B2 (EFGA | B4) B4 | %30
w: |te. Di|* de- sir son le|mu- ra~o- ve per- cuo-|te Non mar,|non fiu\- * * *|* me|
 c2 A G2 G (F2- | FE/D/ E2) D4 | z8 | z2 G2 A2 B2 | c2 z c c2 d2 | e2 dd c2 Be- | edcA (e>d c2) | %37
w: ma tem- pest e sor\-|* * * * te.||E di ti-|mor son fat- te|L'ar- mi, che con- tr'al- trui|* pu- gnar non san\- * *|
 B4 z2 c2- | cA d2 B2 ^c2 | d4 c4 | B2 B2 (d4 | e4 A4 | z2 G2 G2 F2 | G2 B2 G>G AB | e2 e G2 G A2 | %45
w: no. E|* di va- ri pen-|sier la|mu- ni- tio\-|* ne.|Con- tra se|stes- so~il ca- stel- lan com-|bat- te, con- tra se|
 B2 G2 B>c dB | c2 BB d3 c | B2 A2 d2 z d | c2 A2 c3 B/c/ | BA A3 ^G/F/ !courtesy!^G2) | A4 B4 | %51
w: stes- so~il ca- stel- lan com-|bat- te, Pa- gan- do~i|suoi guer- rier sol|d'am- bi- tio\- * *||ne: Pen-|
 d3 c B2 A2 | c2 B2 G2 A2 | (Bc d3 ^c/B/ c2) | d8 | z2 d2 B3 c | d2 d2 e4 | z2 B2 c3 B | %58
w: sa- te lo- pre|mie, che fin' a-|vran\- * * * * *|no,|pen- sa- te|l'o- pre mie,|pen- sa- te|
 A2 G2 c2 d2 | e2 e2 d4 | !fermata!d8 |] %61
w: l'o- pre mie, che|fin' a- vran-|no.|
V:4
 z4 G,4 | G,4 D,2 E,2- | E,2 C,2 D,4 | D,4 G,2 B,2 | A,4 E,2 A,2 | G,4 z2 E,2 | G,4 G,2 B,>A, | %7
w: Ne|l'a- ria~in que\-|* sti dì|fatt' ho~un si|for- te ca-|stel che|Gio- ve ful- mi-|
 G,F, E,2 D,2 G,>A, | B,D A,2 D,4 | z2 D,2 G,3 F, | E,2 D,2 C,3 B,, | C,D, E,2 D,4 | %12
w: nar non puo- te, ful- mi-|nar non puo- te,|Fon- da- to|so- pra due vo-|lu- bil ruo- te,|
 z2 G,3 A, B,2 | A,B, C2 B,2 G,2- | G,2 E,2 A,4 | E,2 B,2 G,3 E, | F,2 G,2 E,4 | D,4 z2 G,2 | %18
w: E di polv'|e di ven- to son|* le por-|te, Con mil- le|fos- se~in- tor-|no. e|
 G,2 D,2 E,2 E,2 | A,4 G,2 F,2 | (E,3 F, G,2) D,2 | C,4 D,4 | E,6 F,2 | (G,3 F,/E,/ D,4) | %24
w: son sue scor- te|Va- ne spe-|ran\- * * ze,|d'o- gni~ef-|fet- to|vuo\- * * *|
 G,,4 z4 | z8 | z2 G,2 D,D, E,2 | D,4 z2 A,,2 | E,4 z2 E,2 | (G,3 F,/E,/ D,2) E,2 | %30
w: te.||O- ve per- cuo-|te Non|mar, non|fiu\- * * * me,|
 C,2 D, E,2 C, D,2 | A,,4 z4 | z2 D,2 E,2 F,2 | G,4 z4 | z2 C2 A,2 G,2 | C2 G,G, A,2 E,2 | %36
w: ma tem- pest e sor-|te.|Di fol- le~ar-|dir|son far- te|L'ar- mi che con- tr'al-|
 G,2 A, C2 B, A,2 | G,4 z4 | z2 G,3 E, A,2 | F,2 G,2 A,4 | G,4 G,2 F,2 | E,4 D,4 | z8 | %43
w: trui pu- gnar non san-|no,|E di va-|ri pen- sier|la mu- ni-|tio- ne.||
 z2 E,2 E,2 D,2 | C,2 E,2 C,>B,, A,,C, | B,,2 C,C, G,>A, B,G, | A,2 E,2 B,2 G,2- | %47
w: Con- tra se|stes- so~il ca- stel- lan, se|stes- so ~il ca- stel- lan com-|bat- te, Pa- gan\-|
 G,2 F,2 G,2 D,2 | A,4 z2 A,2 | G,2 D,2 E,4 | A,,4 z2 D,2 | B,,3 C, D,2 D,2 | E,6 F,2 | %53
w: * do~i suoi guer-|rier sol|d'am- bi- tio-|ne: Pen-|sa- te l'o- pre|mie, che|
 G,2 B,2 A,4 | D,8- | D,4 z4 | z2 G,2 E,3 F, | G,2 G,2 A,4 | z2 B,2 C2 B,2 | (A,4 D,4) | %60
w: fin' a- vran-|no,||pen- sa- te|l'o- pre mie,|che fin' a-|vran\- *|
 !fermata!G,8 |] %61
w: no.|

